flaticon/grooming/manicure-12.svg

<svg xmlns="http://www.w3.org/2000/svg" width="32" height="32" viewBox="0 0 24 24">
    <path d="M14.851562 20.742188L9.148438 20.742188C8.902344 20.742188 8.742188 20.902344 8.742188 21.148438 8.742188 21.390625 8.902344 21.554688 9.148438 21.554688L14.851562 21.554688C15.097656 21.554688 15.257812 21.390625 15.257812 21.148438 15.257812 20.902344 15.097656 20.742188 14.851562 20.742188zM14.851562 19.109375L9.148438 19.109375C8.902344 19.109375 8.742188 19.273438 8.742188 19.519531 8.742188 19.761719 8.902344 19.925781 9.148438 19.925781L14.851562 19.925781C15.097656 19.925781 15.257812 19.761719 15.257812 19.519531 15.257812 19.273438 15.097656 19.109375 14.851562 19.109375zM14.851562 19.109375"/>
    <path d="M 16.320312 8.109375 L 16.238281 8.027344 L 16.214844 8.027344 C 15.757812 4.191406 14.792969 2.117188 13.957031 0.980469 C 13.464844 0.371094 12.734375 -0.0390625 11.917969 0.00390625 C 11.105469 0.00390625 10.371094 0.371094 9.921875 1.019531 C 9.113281 2.097656 8.195312 4.164062 7.765625 8.027344 L 7.722656 8.070312 C 6.296875 8.964844 5.480469 10.515625 5.480469 12.144531 L 5.480469 18.703125 C 5.480469 21.636719 7.84375 24 10.777344 24 L 13.222656 24 C 16.15625 24 18.519531 21.636719 18.519531 18.703125 L 18.519531 12.144531 C 18.519531 10.472656 17.703125 8.964844 16.320312 8.109375 Z M 10.535156 1.511719 C 10.859375 1.0625 11.347656 0.816406 11.917969 0.816406 C 12.449219 0.816406 12.9375 1.0625 13.261719 1.46875 C 14.203125 2.6875 15.289062 5.179688 15.585938 10.164062 C 15.636719 11.042969 15.667969 11.980469 15.667969 12.957031 L 15.667969 13.324219 C 15.667969 14.957031 14.363281 16.257812 12.734375 16.257812 L 11.265625 16.257812 C 9.636719 16.257812 8.332031 14.957031 8.332031 13.324219 L 8.332031 12.957031 C 8.332031 11.382812 8.410156 9.917969 8.523438 8.570312 C 8.90625 4.601562 9.789062 2.5625 10.535156 1.511719 Z M 17.703125 18.703125 C 17.703125 21.1875 15.707031 23.183594 13.222656 23.183594 L 10.777344 23.183594 C 8.292969 23.183594 6.296875 21.1875 6.296875 18.703125 L 6.296875 12.144531 C 6.296875 10.960938 6.785156 9.863281 7.640625 9.128906 C 7.558594 10.3125 7.519531 11.574219 7.519531 12.957031 L 7.519531 13.324219 C 7.519531 15.402344 9.1875 17.074219 11.265625 17.074219 L 12.734375 17.074219 C 14.8125 17.074219 16.480469 15.402344 16.480469 13.324219 L 16.480469 12.957031 C 16.480469 11.945312 16.457031 10.957031 16.394531 10.023438 C 16.375 9.71875 16.355469 9.425781 16.328125 9.136719 C 17.21875 9.871094 17.703125 10.96875 17.703125 12.144531 Z M 17.703125 18.703125"/>
</svg>

<svg xmlns="http://www.w3.org/2000/svg" width="32" height="32" viewBox="0 0 24 24">
    <path d="M14.852 20.742H9.148c-.246 0-.406.16-.406.406 0 .243.16.407.406.407h5.704c.246 0 .406-.164.406-.407 0-.246-.16-.406-.406-.406zm0 0M14.852 19.11H9.148c-.246 0-.406.163-.406.41 0 .242.16.406.406.406h5.704c.246 0 .406-.164.406-.406 0-.247-.16-.41-.406-.41zm0 0"/>
    <path d="M16.32 8.11l-.082-.083h-.023c-.457-3.836-1.422-5.91-2.258-7.047-.492-.609-1.223-1.02-2.039-.976-.813 0-1.547.367-1.996 1.016-.809 1.078-1.727 3.144-2.156 7.007l-.043.043a4.797 4.797 0 0 0-2.243 4.075v6.558A5.286 5.286 0 0 0 10.777 24h2.446a5.286 5.286 0 0 0 5.297-5.297v-6.558c0-1.672-.817-3.18-2.2-4.036zm-5.785-6.598c.324-.45.813-.696 1.383-.696.531 0 1.02.247 1.344.653.941 1.218 2.027 3.71 2.324 8.695.05.879.082 1.816.082 2.793v.367a2.92 2.92 0 0 1-2.934 2.934h-1.468a2.92 2.92 0 0 1-2.934-2.934v-.367c0-1.574.078-3.039.191-4.387.383-3.968 1.266-6.008 2.012-7.058zm7.168 17.191a4.468 4.468 0 0 1-4.48 4.48h-2.446a4.468 4.468 0 0 1-4.48-4.48v-6.558c0-1.184.488-2.282 1.344-3.016a55.318 55.318 0 0 0-.121 3.828v.367a3.738 3.738 0 0 0 3.746 3.75h1.468a3.738 3.738 0 0 0 3.746-3.75v-.367a44.33 44.33 0 0 0-.152-3.82c.89.734 1.375 1.832 1.375 3.008zm0 0"/>
</svg>
